ligands/haptic/eta4-cyclobutyl.svg

<svg height="42" viewBox="0 0 36 42" width="36" xmlns="http://www.w3.org/2000/svg"><g transform="matrix(.05 0 0 .05 -65 -227)"><path d="m1370 4871.4-20 20v-302.8l20 20z"/><path d="m1420 4831.4h-20v-182.8h20z"/><path d="m1950 4871.4 20 20h-620l20-20z"/><path d="m1950 4608.6 20-20v302.8l-20-20z"/><path d="m1900 4648.6h20v182.8h-20z"/><path d="m1370 4608.6-20-20h620l-20 20z"/><path d="m1650 5340h-20v-54.55h20z"/><path d="m1650 5230.91h-20v-54.55h20z"/><path d="m1650 5121.82h-20v-54.55h20z"/><path d="m1650 5012.73h-20v-54.55h20z"/><path d="m1650 4794.55h-20v-54.55h20z"/></g></svg>

<svg xmlns="http://www.w3.org/2000/svg" xmlns:xlink="http://www.w3.org/1999/xlink" width="36" height="42" version="1.1" viewBox="0 0 36 42" style="background-color:#ffffff00"><path fill="#000" stroke="none" d="M 1370,4871.4 L 1350,4891.4 L 1350,4588.6 L 1370,4608.6 L 1370,4871.4 Z" transform="matrix(0.05 0 0 0.05 -65 -227)"/><path fill="#000" stroke="none" d="M 1420,4831.4 L 1400,4831.4 L 1400,4648.6 L 1420,4648.6 L 1420,4831.4 Z" transform="matrix(0.05 0 0 0.05 -65 -227)"/><path fill="#000" stroke="none" d="M 1950,4871.4 L 1970,4891.4 L 1350,4891.4 L 1370,4871.4 L 1950,4871.4 Z" transform="matrix(0.05 0 0 0.05 -65 -227)"/><path fill="#000" stroke="none" d="M 1950,4608.6 L 1970,4588.6 L 1970,4891.4 L 1950,4871.4 L 1950,4608.6 Z" transform="matrix(0.05 0 0 0.05 -65 -227)"/><path fill="#000" stroke="none" d="M 1900,4648.6 L 1920,4648.6 L 1920,4831.4 L 1900,4831.4 L 1900,4648.6 Z" transform="matrix(0.05 0 0 0.05 -65 -227)"/><path fill="#000" stroke="none" d="M 1370,4608.6 L 1350,4588.6 L 1970,4588.6 L 1950,4608.6 L 1370,4608.6 Z" transform="matrix(0.05 0 0 0.05 -65 -227)"/><path fill="#000" stroke="none" d="M 1650,5340 L 1630,5340 L 1630,5285.45 L 1650,5285.45 L 1650,5340 L 1650,5340 Z" transform="matrix(0.05 0 0 0.05 -65 -227)"/><path fill="#000" stroke="none" d="M 1650,5230.91 L 1630,5230.91 L 1630,5176.36 L 1650,5176.36 L 1650,5230.91 L 1650,5230.91 Z" transform="matrix(0.05 0 0 0.05 -65 -227)"/><path fill="#000" stroke="none" d="M 1650,5121.82 L 1630,5121.82 L 1630,5067.27 L 1650,5067.27 L 1650,5121.82 L 1650,5121.82 Z" transform="matrix(0.05 0 0 0.05 -65 -227)"/><path fill="#000" stroke="none" d="M 1650,5012.73 L 1630,5012.73 L 1630,4958.18 L 1650,4958.18 L 1650,5012.73 L 1650,5012.73 Z" transform="matrix(0.05 0 0 0.05 -65 -227)"/><path fill="#000" stroke="none" d="M 1650,4794.55 L 1630,4794.55 L 1630,4740 L 1650,4740 L 1650,4794.55 L 1650,4794.55 Z" transform="matrix(0.05 0 0 0.05 -65 -227)"/></svg>
